public/platby.svg

<svg width="65" height="60" viewBox="0 0 65 60" fill="none" xmlns="http://www.w3.org/2000/svg">
<path fill-rule="evenodd" clip-rule="evenodd" d="M15.0101 2.51326C9.9644 5.26058 9.49464 5.59342 9.2153 6.6198C9.00745 7.38374 9.14559 10.0463 9.47187 11.5661C10.2716 15.2913 12.3968 19.4361 14.9329 22.2166L15.5978 22.9457L15.2791 24.3887C14.5226 27.8151 14.5041 31.082 15.2216 34.4562C15.3636 35.1238 15.4886 35.7154 15.4993 35.7707C15.5101 35.8262 15.0299 36.0581 14.4322 36.2863C13.8345 36.5144 13.1619 36.8324 12.9377 36.9927L12.5299 37.2844L12.3943 36.9263C11.9058 35.6358 11.1868 34.8187 10.0437 34.255L9.2859 33.8813H6.233H3.1801L2.44512 34.2551C1.57771 34.6963 0.664768 35.6303 0.277178 36.4728C0.000127196 37.0753 0 37.0805 0 46.7222V56.3689L0.35261 57.0899C0.782051 57.968 1.61994 58.7686 2.58542 59.2233C3.30145 59.5604 3.33097 59.5631 6.233 59.5631C9.13503 59.5631 9.16454 59.5604 9.88058 59.2233C11.3097 58.5503 12.3331 57.2497 12.4917 55.9052C12.5377 55.5143 12.6207 55.2923 12.707 55.3282C12.7844 55.3604 14.65 56.201 16.8528 57.196C19.0555 58.1913 21.2594 59.1138 21.7501 59.2461C23.1056 59.6117 24.3986 59.7526 27.6033 59.8841C31.3802 60.0389 45.7713 60.0386 46.9595 59.8834C48.0613 59.7397 49.1387 59.374 49.8701 58.8956C50.3659 58.5714 62.3441 47.5477 63.653 46.2111C63.9627 45.8949 64.3925 45.2624 64.608 44.8056C64.9556 44.0693 65 43.8448 65 42.8252C65 41.7965 64.957 41.584 64.5924 40.8096C63.8877 39.313 62.556 38.2817 60.8353 37.8999C60.4331 37.8106 60.1039 37.7281 60.1039 37.7164C60.1039 37.7048 60.2491 37.2683 60.4264 36.7465C61.0891 34.7965 61.3924 32.9161 61.4661 30.3008C61.5584 27.0337 61.3015 25.0957 60.3998 22.2542C59.493 19.3961 57.3667 15.5913 56.465 15.2129C55.5973 14.8487 54.7613 15.4154 54.7613 16.3678C54.7613 16.7034 54.9693 17.1339 55.5948 18.0928C57.0173 20.2736 58.0204 22.7189 58.5992 25.4166C58.8372 26.5258 58.8811 27.1367 58.8858 29.4093C58.8923 32.4529 58.7377 33.5652 57.9804 35.925C57.4046 37.7185 57.0354 38.4478 56.514 38.8205C56.2846 38.9843 54.1221 40.9531 51.7085 43.1954C49.2948 45.4377 47.1196 47.3641 46.8747 47.4764C46.4844 47.6553 45.4084 47.6853 38.1612 47.7198C32.5215 47.7467 29.7443 47.7155 29.4254 47.6217C28.0879 47.2284 27.897 45.5021 29.1168 44.8311C29.4631 44.6406 30.1259 44.6062 34.5391 44.5501L39.5668 44.4862L40.4061 44.071C41.9408 43.3116 42.9263 41.8548 43.0046 40.2295C43.0431 39.433 43.067 39.3766 43.4701 39.1271C44.3459 38.5855 44.8523 38.1106 45.3462 37.3677C47.4946 34.1362 46.0898 29.8792 42.436 28.5481C41.8076 28.3192 41.2998 28.2789 38.1612 28.2093C34.1665 28.1205 34.2151 28.1312 33.3058 27.1405C31.8677 25.5731 32.2811 23.1744 34.1708 22.1231L34.8539 21.7431L40.3031 21.6792L45.7522 21.6153L46.0591 21.2568C46.4918 20.7512 46.4679 20.137 45.995 19.605L45.6239 19.1877L42.4968 19.1493L39.3697 19.1111V17.3188V15.5265L38.9978 15.1531C38.5787 14.7321 38.0503 14.6655 37.48 14.9617C36.9308 15.247 36.8256 15.65 36.8256 17.4688V19.1238H36.0797C32.918 19.1238 30.4256 21.1593 29.9333 24.1436C29.4205 27.2517 31.7573 30.3341 34.9408 30.7494C35.4527 30.8162 37.1053 30.8725 38.6133 30.8747C41.3044 30.8785 41.3671 30.8848 42.0161 31.2096C43.8761 32.1405 44.3856 34.5237 43.0681 36.1291C42.8673 36.3738 42.5045 36.6814 42.2619 36.8126L41.8208 37.0513L41.3266 36.654C41.0549 36.4354 40.5463 36.1247 40.1965 35.9634L39.5605 35.6701L28.8477 35.6353L18.1348 35.6006L18.0078 35.1242C17.211 32.1367 17.0595 29.0088 17.5668 26.0203C17.6797 25.3544 17.782 24.7985 17.7938 24.7848C17.8058 24.7711 18.2072 24.958 18.686 25.2C19.8582 25.7926 20.3864 25.7855 21.5512 25.1609C24.3189 23.677 26.9496 20.6188 28.8762 16.6454C29.8302 14.6778 30.3511 13.1541 30.7123 11.2747C30.8563 10.5248 30.9742 9.8874 30.9742 9.85802C30.9742 9.82876 31.4545 9.65754 32.0417 9.47777C36.3449 8.15931 41.0738 8.29679 45.2846 9.86262C47.276 10.6032 47.7142 10.6073 48.1502 9.88894C48.6512 9.06354 48.3286 8.31838 47.2688 7.85304C42.6929 5.84347 36.6312 5.44457 31.8551 6.83842L31.0187 7.08259L30.8629 6.49714C30.7601 6.11115 30.5428 5.7571 30.2256 5.45837C29.5975 4.86692 20.7561 0.0750212 20.1618 0.00385307C19.7767 -0.0421443 19.0818 0.29632 15.0101 2.51326ZM24.2176 4.95138C26.4296 6.15165 28.2917 7.18455 28.3558 7.2469C28.5282 7.41466 28.4489 9.58267 28.23 10.688C27.7388 13.1678 26.5123 16.0427 24.932 18.4186C24.0021 19.8168 22.042 21.8486 20.9363 22.5607L20.1205 23.086L19.501 22.7339C17.516 21.6061 15.1497 18.7474 13.6139 15.6214C12.4289 13.2096 11.8128 10.9695 11.6768 8.57776L11.6039 7.2952L15.7874 5.03277C18.0884 3.78841 20.0217 2.77008 20.0835 2.76983C20.1454 2.76944 22.0058 3.75123 24.2176 4.95138ZM21.4862 10.6865L19.493 12.7263L18.7144 12.0251C18.2861 11.6395 17.807 11.2903 17.6496 11.2492C16.8829 11.0487 16.0913 11.6621 16.0913 12.4567C16.0913 13.076 16.2704 13.3105 17.813 14.71C18.9258 15.7195 19.0573 15.8018 19.557 15.8018C20.0921 15.8018 20.121 15.7772 22.6073 13.2144C24.2204 11.5517 25.1554 10.4901 25.2235 10.2438C25.4674 9.36367 24.9312 8.64662 24.0294 8.64662C23.487 8.64662 23.4515 8.67512 21.4862 10.6865ZM51.1898 11.32C50.4241 12.0891 50.8386 13.3155 51.9132 13.4602C52.3663 13.5213 52.4924 13.4797 52.8641 13.1461C53.222 12.8248 53.2928 12.6729 53.2928 12.2242C53.2928 11.7796 53.2215 11.6232 52.8801 11.3168C52.3155 10.8099 51.6965 10.8111 51.1898 11.32ZM8.96534 36.5967C9.20881 36.7194 9.53802 37.0154 9.69677 37.2542L9.98552 37.6883L9.98501 46.7092C9.98463 55.5387 9.97916 55.739 9.72729 56.1539C9.56943 56.414 9.24634 56.6773 8.89131 56.835C8.36876 57.0671 8.09539 57.088 6.06445 57.0499C3.62137 57.004 3.34687 56.9325 2.79849 56.1984C2.55044 55.8663 2.54319 55.6316 2.51037 46.85C2.47832 38.2618 2.48786 37.8213 2.71453 37.395C2.84517 37.149 3.17514 36.8194 3.44774 36.6623C3.90987 36.3963 4.09813 36.3769 6.233 36.3751C8.16179 36.3734 8.59238 36.4084 8.96534 36.5967ZM39.3798 38.4585C40.7059 39.1629 40.7866 40.8473 39.5317 41.6309C39.0542 41.9293 39.0251 41.9312 34.0271 41.9947L29.0025 42.0586L28.2095 42.4266C26.6607 43.145 25.7227 44.5423 25.7119 46.1472C25.7011 47.7482 26.6351 49.1809 28.1569 49.8975L28.8753 50.2359L37.4214 50.2713C46.7924 50.3101 47.1748 50.2856 48.4048 49.5688C48.74 49.3734 51.0269 47.3451 53.4869 45.0612C55.9469 42.7773 58.1415 40.8113 58.3639 40.6922C59.3444 40.1672 60.715 40.3006 61.564 41.0036C62.086 41.4358 62.5135 42.2366 62.518 42.7907C62.5259 43.7675 62.3769 43.9267 55.3778 50.4229C51.204 54.2969 48.438 56.7713 48.095 56.9381C47.2006 57.373 45.7729 57.4531 38.988 57.4497C28.0279 57.4441 23.4971 57.2164 21.8631 56.589C21.522 56.4582 19.2826 55.4674 16.8863 54.3874L12.5296 52.4237V46.5193V40.6149L13.21 39.9902C13.5842 39.6467 14.2626 39.1816 14.7175 38.9566C16.3185 38.1649 15.9993 38.1839 27.9331 38.1722L38.8208 38.1616L39.3798 38.4585Z" fill="#0061E0"/>
</svg>

<?xml version="1.0" encoding="UTF-8"?><svg id="Layer_1" xmlns="http://www.w3.org/2000/svg" viewBox="0 0 65 60"><defs><style>.cls-1{fill:#1727a2;fill-rule:evenodd;}</style></defs><path class="cls-1" d="m15.01,2.51c-5.05,2.75-5.52,3.08-5.79,4.11-.21.76-.07,3.43.26,4.95.8,3.73,2.92,7.87,5.46,10.65l.66.73-.32,1.44c-.76,3.43-.78,6.69-.06,10.07.14.67.27,1.26.28,1.31.01.06-.47.29-1.07.52-.6.23-1.27.55-1.49.71l-.41.29-.14-.36c-.49-1.29-1.21-2.11-2.35-2.67l-.76-.37H3.18l-.73.37c-.87.44-1.78,1.38-2.17,2.22Q0,37.08,0,46.72v9.65l.35.72c.43.88,1.27,1.68,2.23,2.13.72.34.75.34,3.65.34s2.93,0,3.65-.34c1.43-.67,2.45-1.97,2.61-3.32.05-.39.13-.61.22-.58.08.03,1.94.87,4.15,1.87,2.2,1,4.41,1.92,4.9,2.05,1.36.37,2.65.51,5.85.64,3.78.15,18.17.15,19.36,0,1.1-.14,2.18-.51,2.91-.99.5-.32,12.47-11.35,13.78-12.68.31-.32.74-.95.96-1.41.35-.74.39-.96.39-1.98s-.04-1.24-.41-2.02c-.7-1.5-2.04-2.53-3.76-2.91-.4-.09-.73-.17-.73-.18s.15-.45.32-.97c.66-1.95.97-3.83,1.04-6.45.09-3.27-.16-5.21-1.07-8.05-.91-2.86-3.03-6.66-3.93-7.04-.87-.36-1.7.2-1.7,1.15,0,.34.21.77.83,1.73,1.42,2.18,2.43,4.63,3,7.32.24,1.11.28,1.72.29,3.99,0,3.04-.15,4.16-.91,6.52-.58,1.79-.94,2.52-1.47,2.9-.23.16-2.39,2.13-4.81,4.37-2.41,2.24-4.59,4.17-4.83,4.28-.39.18-1.47.21-8.71.24-5.64.03-8.42,0-8.74-.1-1.34-.39-1.53-2.12-.31-2.79.35-.19,1.01-.22,5.42-.28l5.03-.06.84-.42c1.53-.76,2.52-2.22,2.6-3.84.04-.8.06-.85.47-1.1.88-.54,1.38-1.02,1.88-1.76,2.15-3.23.74-7.49-2.91-8.82-.63-.23-1.14-.27-4.27-.34-3.99-.09-3.95-.08-4.86-1.07-1.44-1.57-1.02-3.97.86-5.02l.68-.38,5.45-.06,5.45-.06.31-.36c.43-.51.41-1.12-.06-1.65l-.37-.42-3.13-.04-3.13-.04v-3.58l-.37-.37c-.42-.42-.95-.49-1.52-.19-.55.29-.65.69-.65,2.51v1.66h-.75c-3.16,0-5.65,2.04-6.15,5.02-.51,3.11,1.82,6.19,5.01,6.61.51.07,2.16.12,3.67.13,2.69,0,2.75.01,3.4.33,1.86.93,2.37,3.31,1.05,4.92-.2.24-.56.55-.81.68l-.44.24-.49-.4c-.27-.22-.78-.53-1.13-.69l-.64-.29-10.71-.03-10.71-.03-.13-.48c-.8-2.99-.95-6.12-.44-9.1.11-.67.22-1.22.23-1.24.01-.01.41.17.89.42,1.17.59,1.7.59,2.87-.04,2.77-1.48,5.4-4.54,7.32-8.52.95-1.97,1.47-3.49,1.84-5.37.14-.75.26-1.39.26-1.42s.48-.2,1.07-.38c4.3-1.32,9.03-1.18,13.24.38,1.99.74,2.43.74,2.87.03.5-.83.18-1.57-.88-2.04-4.58-2.01-10.64-2.41-15.41-1.01l-.84.24-.16-.59c-.1-.39-.32-.74-.64-1.04C29.6,4.87,20.76.08,20.16,0c-.39-.05-1.08.29-5.15,2.51Zm9.21,2.44c2.21,1.2,4.07,2.23,4.14,2.3.17.17.09,2.34-.13,3.44-.49,2.48-1.72,5.35-3.3,7.73-.93,1.4-2.89,3.43-4,4.14l-.82.53-.62-.35c-1.98-1.13-4.35-3.99-5.89-7.11-1.19-2.41-1.8-4.65-1.94-7.04l-.07-1.28,4.18-2.26c2.3-1.24,4.23-2.26,4.3-2.26.06,0,1.92.98,4.13,2.18Zm-2.73,5.74l-1.99,2.04-.78-.7c-.43-.39-.91-.73-1.06-.78-.77-.2-1.56.41-1.56,1.21,0,.62.18.85,1.72,2.25,1.11,1.01,1.24,1.09,1.74,1.09.54,0,.56-.02,3.05-2.59,1.61-1.66,2.55-2.72,2.62-2.97.24-.88-.29-1.6-1.19-1.6-.54,0-.58.03-2.54,2.04Zm29.7.63c-.77.77-.35,2,.72,2.14.45.06.58.02.95-.31.36-.32.43-.47.43-.92s-.07-.6-.41-.91c-.56-.51-1.18-.51-1.69,0ZM8.97,36.6c.24.12.57.42.73.66l.29.43v9.02c0,8.83,0,9.03-.26,9.44-.16.26-.48.52-.84.68-.52.23-.8.25-2.83.21-2.44-.05-2.72-.12-3.27-.85-.25-.33-.26-.57-.29-9.35-.03-8.59-.02-9.03.2-9.45.13-.25.46-.58.73-.73.46-.27.65-.29,2.79-.29,1.93,0,2.36.03,2.73.22Zm30.41,1.86c1.33.7,1.41,2.39.15,3.17-.48.3-.51.3-5.5.36l-5.02.06-.79.37c-1.55.72-2.49,2.12-2.5,3.72-.01,1.6.92,3.03,2.44,3.75l.72.34,8.55.04c9.37.04,9.75.01,10.98-.7.34-.2,2.62-2.22,5.08-4.51,2.46-2.28,4.65-4.25,4.88-4.37.98-.53,2.35-.39,3.2.31.52.43.95,1.23.95,1.79,0,.98-.14,1.14-7.14,7.63-4.17,3.87-6.94,6.35-7.28,6.52-.89.43-2.32.51-9.11.51-10.96,0-15.49-.23-17.12-.86-.34-.13-2.58-1.12-4.98-2.2l-4.36-1.96v-11.81l.68-.62c.37-.34,1.05-.81,1.51-1.03,1.6-.79,1.28-.77,13.22-.78h10.89s.56.29.56.29Z"/></svg>
